X: 145
T: Sinfonia di Camera – Polacchina
C: Stolle
L: 1/8
M: 3/4
N: Derived from pl-sa--19-a-i-19--004_stolle--sinfonia-di-camera-polacchina.krn
V: 1 clef=treble
V: 2 clef=treble
V: 3 clef=treble
V: 4 clef=treble
V: 5 clef=treble
V: 6 clef=treble
V: 7 clef=bass
K: C
[V:1] !trill!c2!trill!d2e2 | 
[V:2] c2B2c2 | 
[V:3] c2d2e2 | 
[V:4] E2G2c2 | 
[V:5] !trill!c/B/c/e/ !trill!d/c/d/f/ !trill!e/d/e/g/ | 
[V:6] !trill!E/D/E/G/ !trill!B/A/B/d/ !trill!c/B/c/e/ | 
[V:7] C2G,2C,2 | 
[V:1] A2!trill!B2c2 | 
[V:2] A2!trill!B2c2 | 
[V:3] d2f2e2 | 
[V:4] d2G2c2 | 
[V:5] A2!trill!B2c2 | 
[V:6] cAGFE2 | 
[V:7] F,2G,2C,2 | 
[V:1] z2z2Bc | 
[V:2] z2z2Bc | 
[V:3] z2z2z a | 
[V:4] z2z2z f | 
[V:5] AF/G/ AA Bc | 
[V:6] z2z2F2 | 
[V:7] z2z2F,2 | 
[V:1] G2!trill!F2E2 | 
[V:2] E2D2C2 | 
[V:3] g2f2e2 | 
[V:4] e2d2c2 | 
[V:5] G2F2E2 | 
[V:6] E2D2C2 | 
[V:7] G,2G,,2C,2 | 
[V:1] z2z2Bc | 
[V:2] z2z2Bc | 
[V:3] z2z2z a | 
[V:4] z2z2z f | 
[V:5] AF/G/ AA Bc | 
[V:6] z2z2F2 | 
[V:7] z2z2F,2 | 
[V:1] GFFEE2 | 
[V:2] EDDCC2 | 
[V:3] gffee2 | 
[V:4] eddcc2 | 
[V:5] GFFEE2 | 
[V:6] EDDCC2 | 
[V:7] G,2G,,2C,2 | 
[V:1] a4gf | 
[V:2] C2D2Bd | 
[V:3] a4gf | 
[V:4] f4ed | 
[V:5] a/g/f/e/ d/c/B/A/ Gf | 
[V:6] C2D2Bd | 
[V:7] F,4G,2 | 
[V:1] e/d/c/B/ {/B}c4 :|]|:  
[V:2] G/F/E/D/ {/D}E4 :|]|:  
[V:3] edc4 :|]|:  
[V:4] cGE4 :|]|:  
[V:5] e/d/c/B/c2C2 :|]|:  
[V:6] G/F/E/D/E4 :|]|:  
[V:7] CG,C,4 :|]|:  
[V:1] e/d/c/B/ c/d/e/f< !trill!gf//e// | 
[V:2] c2e2-e3/d//c// | 
[V:3] e4gf/e/ | 
[V:4] c4C2 | 
[V:5] e/d/c/B/ c/d/e/f< !trill!gf//e// | 
[V:6] c2e2-e3/d//c// | 
[V:7] C,2C,2C,2 | 
[V:1] d2c2B2 | 
[V:2] B2A2G2 | 
[V:3] d6 | 
[V:4] G6 | 
[V:5] d2c2B2 | 
[V:6] B2A2G2 | 
[V:7] G,,2D,2G,2 | 
[V:1] d6 | 
[V:2] d6- | 
[V:3] ^f6 | 
[V:4] d6 | 
[V:5] A//B//c3/ DaDc | 
[V:6] D/^F/A/F/ D/F/A/F/ D/F/A/F/ | 
[V:7] D,2z D,^F,D, | 
[V:1] d6 | 
[V:2] d6 | 
[V:3] g6 | 
[V:4] G6 | 
[V:5] B//c//d3/ DbDg | 
[V:6] D/G/B/G/ D/G/B/G/ D/G/B/G/ | 
[V:7] G,2z G,,B,,G,, | 
[V:1] d6 | 
[V:2] d6- | 
[V:3] ^f6 | 
[V:4] d6 | 
[V:5] A//B//c3/ DaDc | 
[V:6] D/^F/A/F/ D/F/A/F/ D/F/A/F/ | 
[V:7] D,2z D,^F,D, | 
[V:1] d6 | 
[V:2] d6 | 
[V:3] g6 | 
[V:4] G6 | 
[V:5] B//c//d3/ DbDg | 
[V:6] D/G/B/G/ D/G/B/G/ D/G/B/G/ | 
[V:7] G,2z G,,B,,G,, | 
[V:1] !trill!d4eG | 
[V:2] !trill!d4e2 | 
[V:3] g4e2 | 
[V:4] G4c2 | 
[V:5] [B2D2G,2]!trill!d3/c//d// eG | 
[V:6] [B2D2G,2]G3E | 
[V:7] G,2B,,2C,2 | 
[V:1] ^F/G/A/F/G4 | 
[V:2] dcB4 | 
[V:3] ^ffg4 | 
[V:4] ddG4 | 
[V:5] ^F/G/A/F/G4 | 
[V:6] DC B,B B/A/G/F/ | 
[V:7] D,D, G,,G, G,/F,/E,/D,/ | 
[V:1] G/=F/E/F/ G/F/E/F/ G_B | 
[V:2] E/D/C/D/ E/D/C/D/ EG | 
[V:3] z6 | 
[V:4] z6 | 
[V:5] z6 | 
[V:6] E2z2z2 | 
[V:7] C,2z2C,2 | 
[V:1] A f {/a} gf/e/f2 | 
[V:2] FA _BA/G/A2 | 
[V:3] z =f gf/e/f2 | 
[V:4] z cdcc2 | 
[V:5] z f {/a} gf/e/f2 | 
[V:6] z A _BA/G/A2 | 
[V:7] F,, F,_B,,C,F,,2 | 
[V:1] A/G/^F/G/ A/G/F/G/ Ac | 
[V:2] ^F/E/D/E/ F/E/D/E/ FA | 
[V:3] z6 | 
[V:4] z6 | 
[V:5] z6 | 
[V:6] z6 | 
[V:7] D,2z2D,2 | 
[V:1] Bg {/b} ag/^f/g2 | 
[V:2] G B cB/A/B2 | 
[V:3] z g ag/^f/g2 | 
[V:4] z GcdG2 | 
[V:5] z g {/b} ag/^f/g2 | 
[V:6] z B cB/A/B2 | 
[V:7] G,, G,C,D,G,,2 | 
[V:1] z6 | 
[V:2] z6 | 
[V:3] =f2z fdd | 
[V:4] G2z dGG | 
[V:5] FD/E/ FDB,G, | 
[V:6] DB,/C/ DDB,G, | 
[V:7] G,,2z D,B,,G,, | 
[V:1] G2!trill!F2E2 | 
[V:2] E2D2C2 | 
[V:3] g2f2e2 | 
[V:4] e2d2c2 | 
[V:5] G2F2E2 | 
[V:6] E2D2C2 | 
[V:7] C,2z D,E,C, | 
[V:1] z6 | 
[V:2] z6 | 
[V:3] z12 | 
[V:4] z12 | 
[V:5] FD/E/ FDB,G, | 
[V:6] DB,/C/ DDB,G, | 
[V:7] G,,2z D,B,,G,, | 
[V:1] GFFEE2 | 
[V:2] EDDCC2 | 
[V:3]  | 
[V:4]  | 
[V:5] GFFEE2 | 
[V:6] EDDCC2 | 
[V:7] C,2z D,E,C, | 
[V:1] a4gf | 
[V:2] C2D2Bd | 
[V:3] a4gf | 
[V:4] f4ed | 
[V:5] a/g/f/e/ d/c/B/A/ Gf | 
[V:6] C2D2Bd | 
[V:7] F,4G,2 | 
[V:1] e/d/c/B/ {/B}c4 :|]  
[V:2] G/F/E/D/ {/D}E4 :|]  
[V:3] edc4 :|]  
[V:4] cGE4 :|]  
[V:5] e/d/c/B/ {/B}c4 :|]  
[V:6] G/F/E/D/ {/D}E4 :|]  
[V:7] CG,C,4 :|]  

